art/standard/gamepad/vita/start.svg

<svg width="100px" height="100px" preserveAspectRatio="none" version="1.1" viewBox="0 0 100 100" xmlns="http://www.w3.org/2000/svg">
 <g fill-rule="evenodd">
  <ellipse cx="50" cy="50" rx="46.5" ry="29.2" fill="#202020"/>
  <ellipse cx="50" cy="50" rx="41.5" ry="24.2" fill="#353535"/>
  <ellipse cx="50" cy="50" rx="39.5" ry="22.2" fill="#616161"/>
  <ellipse cx="50" cy="50" rx="35.5" ry="18.2" fill="#535353"/>
 </g>
 <path d="m29.9 43.8q-0.85 0-1.7 0.25-0.8 0.25-1.45 0.75t-1 1.2q-0.4 0.75-0.4 1.7 0 1 0.4 1.6 0.45 0.6 1.05 1 0.65 0.35 1.35 0.55 0.75 0.25 1.35 0.45 0.65 0.2 1.05 0.55 0.4 0.3 0.4 0.85 0 0.3-0.15 0.55t-0.4 0.35q-0.3 0.2-0.6 0.25-0.35 0.1-0.65 0.1-0.65 0-1.3-0.3-0.6-0.3-1-0.85l-1.85 2.05q0.85 0.8 1.85 1.15t2.15 0.35q0.9 0 1.75-0.25 0.85-0.2 1.45-0.7 0.65-0.5 1-1.25 0.4-0.7 0.4-1.7 0-1.05-0.4-1.7-0.4-0.6-1.05-1-0.6-0.35-1.3-0.55t-1.35-0.4q-0.6-0.2-1-0.5t-0.4-0.8q0-0.35 0.15-0.6 0.2-0.25 0.45-0.4 0.25-0.1 0.55-0.2 0.3-0.05 0.6-0.05 0.5 0 1.05 0.2t0.85 0.6l1.8-2q-0.75-0.65-1.7-0.95t-1.95-0.3m35.8 0.3v2.35h3.4v9.6h2.65v-9.6h3.4v-2.35h-9.45m-0.75 1.9q-0.35-0.7-0.95-1.1-0.65-0.4-1.45-0.6t-1.7-0.2h-4.65v11.95h2.65v-4.75h1.3l2.5 4.75h3.15l-3.05-5.05q1.25-0.2 1.9-1.1t0.65-2.15q0-1.05-0.35-1.75m-6.1 3.05v-2.7h1.7q0.35 0 0.75 0.05 0.35 0.05 0.65 0.2 0.25 0.15 0.45 0.4t0.2 0.75q0 0.45-0.2 0.75-0.25 0.25-0.55 0.4-0.3 0.1-0.7 0.15-0.4 0-0.75 0h-1.55m-9.05-4.95h-2.15l-5.15 11.95h2.9l0.95-2.55h4.65l1.05 2.55h2.95l-5.2-11.95m0.3 7.2h-2.9l1.45-3.7 1.45 3.7m-6.2-4.85v-2.35h-9.45v2.35h3.4v9.6h2.65v-9.6z" fill="#d6d6d6"/>
</svg>

<svg xmlns="http://www.w3.org/2000/svg" version="1.1" xmlns:xlink="http://www.w3.org/1999/xlink" preserveAspectRatio="none" x="0px" y="0px" width="100px" height="100px" viewBox="0 0 100 100">
<defs/>

<g id="PS_Vita">
<g>
<g>
<g>
<path fill="#353535" stroke="none" d="
M 81.5 68.85
Q 94.55 61.05 94.55 50.05 94.55 39 81.5 31.15 68.45 23.35 50.05 23.35 31.6 23.35 18.5 31.15 5.45 39 5.45 50.05 5.45 61.05 18.5 68.85 31.6 76.7 50.05 76.7 68.45 76.7 81.5 68.85
M 77.85 36.55
L 77.8 36.55
Q 87.35 42.3 87.8 50.05 87.35 57.7 77.85 63.4
L 77.8 63.4
Q 66.3 70.25 50.05 70.25 33.7 70.25 22.15 63.4 12.6 57.7 12.2 50.05 12.6 42.3 22.15 36.55 33.7 29.75 50.05 29.75 66.3 29.75 77.85 36.55 Z"/>

<path fill="#535353" stroke="none" d="
M 77.8 36.55
L 77.85 36.55
Q 66.3 29.75 50.05 29.75 33.7 29.75 22.15 36.55 12.6 42.3 12.2 50.05 12.6 57.7 22.15 63.4 33.7 70.25 50.05 70.25 66.3 70.25 77.8 63.4
L 77.85 63.4
Q 87.35 57.7 87.8 50.05 87.35 42.3 77.8 36.55
M 43.9 44.1
L 43.9 46.45 40.5 46.45 40.5 56.05 37.85 56.05 37.85 46.45 34.45 46.45 34.45 44.1 43.9 44.1
M 47.65 44.1
L 49.8 44.1 55 56.05 52.05 56.05 51 53.5 46.35 53.5 45.4 56.05 42.5 56.05 47.65 44.1
M 64 44.9
Q 64.6 45.3 64.95 46 65.3 46.7 65.3 47.75 65.3 49 64.65 49.9 64 50.8 62.75 51
L 65.8 56.05 62.65 56.05 60.15 51.3 58.85 51.3 58.85 56.05 56.2 56.05 56.2 44.1 60.85 44.1
Q 61.75 44.1 62.55 44.3 63.35 44.5 64 44.9
M 65.7 46.45
L 65.7 44.1 75.15 44.1 75.15 46.45 71.75 46.45 71.75 56.05 69.1 56.05 69.1 46.45 65.7 46.45
M 28.2 44.05
Q 29.05 43.8 29.9 43.8 30.9 43.8 31.85 44.1 32.8 44.4 33.55 45.05
L 31.75 47.05
Q 31.45 46.65 30.9 46.45 30.35 46.25 29.85 46.25 29.55 46.25 29.25 46.3 28.95 46.4 28.7 46.5 28.45 46.65 28.25 46.9 28.1 47.15 28.1 47.5 28.1 48 28.5 48.3 28.9 48.6 29.5 48.8 30.15 49 30.85 49.2 31.55 49.4 32.15 49.75 32.8 50.15 33.2 50.75 33.6 51.4 33.6 52.45 33.6 53.45 33.2 54.15 32.85 54.9 32.2 55.4 31.6 55.9 30.75 56.1 29.9 56.35 29 56.35 27.85 56.35 26.85 56 25.85 55.65 25 54.85
L 26.85 52.8
Q 27.25 53.35 27.85 53.65 28.5 53.95 29.15 53.95 29.45 53.95 29.8 53.85 30.1 53.8 30.4 53.6 30.65 53.5 30.8 53.25 30.95 53 30.95 52.7 30.95 52.15 30.55 51.85 30.15 51.5 29.5 51.3 28.9 51.1 28.15 50.85 27.45 50.65 26.8 50.3 26.2 49.9 25.75 49.3 25.35 48.7 25.35 47.7 25.35 46.75 25.75 46 26.1 45.3 26.75 44.8 27.4 44.3 28.2 44.05
M 58.85 46.35
L 58.85 49.05 60.4 49.05
Q 60.75 49.05 61.15 49.05 61.55 49 61.85 48.9 62.15 48.75 62.4 48.5 62.6 48.2 62.6 47.75 62.6 47.25 62.4 47 62.2 46.75 61.95 46.6 61.65 46.45 61.3 46.4 60.9 46.35 60.55 46.35
L 58.85 46.35
M 47.2 51.3
L 50.1 51.3 48.65 47.6 47.2 51.3 Z"/>

<path fill="#D6D6D6" stroke="none" d="
M 29.9 43.8
Q 29.05 43.8 28.2 44.05 27.4 44.3 26.75 44.8 26.1 45.3 25.75 46 25.35 46.75 25.35 47.7 25.35 48.7 25.75 49.3 26.2 49.9 26.8 50.3 27.45 50.65 28.15 50.85 28.9 51.1 29.5 51.3 30.15 51.5 30.55 51.85 30.95 52.15 30.95 52.7 30.95 53 30.8 53.25 30.65 53.5 30.4 53.6 30.1 53.8 29.8 53.85 29.45 53.95 29.15 53.95 28.5 53.95 27.85 53.65 27.25 53.35 26.85 52.8
L 25 54.85
Q 25.85 55.65 26.85 56 27.85 56.35 29 56.35 29.9 56.35 30.75 56.1 31.6 55.9 32.2 55.4 32.85 54.9 33.2 54.15 33.6 53.45 33.6 52.45 33.6 51.4 33.2 50.75 32.8 50.15 32.15 49.75 31.55 49.4 30.85 49.2 30.15 49 29.5 48.8 28.9 48.6 28.5 48.3 28.1 48 28.1 47.5 28.1 47.15 28.25 46.9 28.45 46.65 28.7 46.5 28.95 46.4 29.25 46.3 29.55 46.25 29.85 46.25 30.35 46.25 30.9 46.45 31.45 46.65 31.75 47.05
L 33.55 45.05
Q 32.8 44.4 31.85 44.1 30.9 43.8 29.9 43.8
M 65.7 44.1
L 65.7 46.45 69.1 46.45 69.1 56.05 71.75 56.05 71.75 46.45 75.15 46.45 75.15 44.1 65.7 44.1
M 64.95 46
Q 64.6 45.3 64 44.9 63.35 44.5 62.55 44.3 61.75 44.1 60.85 44.1
L 56.2 44.1 56.2 56.05 58.85 56.05 58.85 51.3 60.15 51.3 62.65 56.05 65.8 56.05 62.75 51
Q 64 50.8 64.65 49.9 65.3 49 65.3 47.75 65.3 46.7 64.95 46
M 58.85 49.05
L 58.85 46.35 60.55 46.35
Q 60.9 46.35 61.3 46.4 61.65 46.45 61.95 46.6 62.2 46.75 62.4 47 62.6 47.25 62.6 47.75 62.6 48.2 62.4 48.5 62.15 48.75 61.85 48.9 61.55 49 61.15 49.05 60.75 49.05 60.4 49.05
L 58.85 49.05
M 49.8 44.1
L 47.65 44.1 42.5 56.05 45.4 56.05 46.35 53.5 51 53.5 52.05 56.05 55 56.05 49.8 44.1
M 50.1 51.3
L 47.2 51.3 48.65 47.6 50.1 51.3
M 43.9 46.45
L 43.9 44.1 34.45 44.1 34.45 46.45 37.85 46.45 37.85 56.05 40.5 56.05 40.5 46.45 43.9 46.45 Z"/>
</g>
</g>

<g>
<path stroke="#202020" stroke-width="5" stroke-linejoin="round" stroke-linecap="round" fill="none" d="
M 94.55 50.05
Q 94.55 61.05 81.5 68.85 68.45 76.7 50.05 76.7 31.6 76.7 18.5 68.85 5.45 61.05 5.45 50.05 5.45 39 18.5 31.15 31.6 23.35 50.05 23.35 68.45 23.35 81.5 31.15 94.55 39 94.55 50.05 Z"/>
</g>

<g>
<path stroke="#616161" stroke-width="4" stroke-linejoin="round" stroke-linecap="round" fill="none" d="
M 77.85 36.55
L 77.8 36.55
Q 87.35 42.3 87.8 50.05 87.35 57.7 77.85 63.4
L 77.8 63.4
Q 66.3 70.25 50.05 70.25 33.7 70.25 22.15 63.4 12.6 57.7 12.2 50.05 12.6 42.3 22.15 36.55 33.7 29.75 50.05 29.75 66.3 29.75 77.85 36.55 Z"/>
</g>
</g>
</g>
</svg>
